svg/relaxed.svg

<svg width="32" height="32" viewBox="0 0 32 32" fill="none" xmlns="http://www.w3.org/2000/svg">
<path fill-rule="evenodd" clip-rule="evenodd" d="M26 15.5C26 21.023 21.523 25.5 16 25.5C10.477 25.5 6 21.023 6 15.5C6 9.977 10.477 5.5 16 5.5C21.523 5.5 26 9.977 26 15.5ZM28 15.5C28 22.127 22.627 27.5 16 27.5C9.373 27.5 4 22.127 4 15.5C4 8.873 9.373 3.5 16 3.5C22.627 3.5 28 8.873 28 15.5Z" fill="black"/>
<path fill-rule="evenodd" clip-rule="evenodd" d="M8.37458 12.0021C7.84958 11.9671 7.36458 12.3721 7.53458 12.8701C8.03458 14.3361 9.94758 15.0911 11.4116 15.0911C12.8766 15.0911 14.7876 14.3361 15.2886 12.8701C15.4586 12.3721 14.9736 11.9671 14.4486 12.0021C13.8936 12.0391 13.3026 12.5771 12.7916 12.7971C12.3026 13.0091 11.6636 13.0911 11.4116 13.0911C11.1106 13.0911 10.4766 13.0231 10.0026 12.8171C9.49158 12.5961 8.92958 12.0391 8.37458 12.0021Z" fill="black"/>
<path fill-rule="evenodd" clip-rule="evenodd" d="M17.3746 12.0021C16.8496 11.9671 16.3646 12.3721 16.5346 12.8701C17.0346 14.3361 18.9476 15.0911 20.4116 15.0911C21.8766 15.0911 23.7876 14.3361 24.2886 12.8701C24.4586 12.3721 23.9736 11.9671 23.4486 12.0021C22.8936 12.0391 22.3026 12.5771 21.7916 12.7971C21.3026 13.0091 20.6636 13.0911 20.4116 13.0911C20.1106 13.0911 19.4766 13.0231 19.0026 12.8171C18.4916 12.5961 17.9296 12.0391 17.3746 12.0021Z" fill="black"/>
<path fill-rule="evenodd" clip-rule="evenodd" d="M16.0007 22.75C17.2225 22.75 18.2617 21.8925 18.4941 20.75C18.6098 20.18 16.998 20 16.0007 20C15.0033 20 13.3781 20.1155 13.5073 20.75C13.7396 21.8925 14.7784 22.75 16.0007 22.75Z" fill="black"/>
</svg>

<svg width="32" height="32" fill="none" xmlns="http://www.w3.org/2000/svg"><path fill-rule="evenodd" clip-rule="evenodd" d="M26 15.5c0 5.523-4.477 10-10 10s-10-4.477-10-10 4.477-10 10-10 10 4.477 10 10zm2 0c0 6.627-5.373 12-12 12s-12-5.373-12-12 5.373-12 12-12 12 5.373 12 12z" fill="#000"/><path fill-rule="evenodd" clip-rule="evenodd" d="M8.375 12.002c-.525-.035-1.01.37-.84.868.5 1.466 2.413 2.221 3.877 2.221 1.465 0 3.376-.755 3.877-2.22.17-.499-.315-.904-.84-.869-.555.037-1.146.575-1.657.795a4.142 4.142 0 0 1-1.38.294c-.301 0-.935-.068-1.41-.274-.51-.22-1.072-.778-1.627-.815zM17.375 12.002c-.525-.035-1.01.37-.84.868.5 1.466 2.413 2.221 3.877 2.221 1.465 0 3.376-.755 3.877-2.22.17-.499-.315-.904-.84-.869-.555.037-1.146.575-1.657.795a4.142 4.142 0 0 1-1.38.294c-.301 0-.935-.068-1.41-.274-.51-.22-1.072-.778-1.627-.815zM16 22.75c1.223 0 2.262-.858 2.494-2 .116-.57-1.496-.75-2.493-.75-.998 0-2.623.116-2.494.75.233 1.142 1.271 2 2.494 2z" fill="#000"/></svg>
